build/img/lastname.svg

<svg width="604" height="81" viewBox="0 0 604 81" fill="none" xmlns="http://www.w3.org/2000/svg">
<path d="M2.38045 1.125V38.8125H51.0097V1.125H53.5035V79.875H51.0097V41.175H2.38045V79.875H0V1.125H2.38045Z" fill="#3D3D3D"/>
<path d="M138.357 67.275C145.763 59.775 149.465 50.85 149.465 40.5C149.465 30.15 145.763 21.225 138.357 13.725C130.951 6.225 121.958 2.475 111.378 2.475C101.025 2.475 92.0701 6.225 84.5131 13.725C77.1073 21.3 73.4044 30.225 73.4044 40.5C73.4044 50.775 77.1073 59.7 84.5131 67.275C92.0701 74.775 101.025 78.525 111.378 78.525C121.958 78.525 130.951 74.775 138.357 67.275ZM82.9262 69.075C74.9158 60.9 70.9106 51.375 70.9106 40.5C70.9106 29.625 74.9158 20.1 82.9262 11.925C90.7099 3.975 100.194 0 111.378 0C122.714 0 132.273 3.975 140.057 11.925C147.992 20.025 151.959 29.55 151.959 40.5C151.959 51.45 147.992 60.975 140.057 69.075C132.273 77.025 122.714 81 111.378 81C100.194 81 90.7099 77.025 82.9262 69.075Z" fill="#3D3D3D"/>
<path d="M172.46 3.7125V36.5625H202.045C208.998 36.5625 213.872 33.3375 216.668 26.8875C217.499 24.7875 217.915 22.575 217.915 20.25C217.915 17.925 217.499 15.6375 216.668 13.3875C213.872 6.9375 208.998 3.7125 202.045 3.7125H172.46ZM169.966 1.2375H202.045C206.202 1.2375 209.716 2.2875 212.587 4.3875C215.459 6.4125 217.575 9.1125 218.935 12.4875C219.842 14.8875 220.295 17.4375 220.295 20.1375C220.295 22.9125 219.842 25.4625 218.935 27.7875C217.273 31.9875 214.514 35.1375 210.66 37.2375C215.572 38.2875 219.351 40.8375 221.996 44.8875C224.716 48.8625 226.077 53.325 226.077 58.275C226.077 64.05 224.225 69.1125 220.522 73.4625C216.819 77.7375 211.718 79.875 205.219 79.875H169.966V1.2375ZM172.46 39.0375V77.5125H205.219C211.038 77.5125 215.572 75.6375 218.822 71.8875C222.071 68.0625 223.696 63.5625 223.696 58.3875C223.696 53.1375 222.071 48.6 218.822 44.775C215.572 40.95 211.038 39.0375 205.219 39.0375H172.46Z" fill="#3D3D3D"/>
<path d="M244.488 1.125H246.982V74.925L298.445 1.125H300.712V79.875H298.331V5.625L246.528 79.875H244.488V1.125Z" fill="#3D3D3D"/>
<path d="M369.753 1.125V79.875H367.259V45.45C362.649 47.625 357.624 48.8625 352.183 49.1625C346.818 49.3875 341.792 48.7875 337.107 47.3625C332.421 45.8625 328.53 43.2 325.431 39.375C322.333 35.475 320.784 30.75 320.784 25.2V1.125H323.277V25.2C323.277 30.3 324.751 34.6125 327.698 38.1375C330.721 41.5875 334.462 43.95 338.92 45.225C343.379 46.5 348.14 46.95 353.203 46.575C358.342 46.2 363.027 45 367.259 42.975V1.125H369.753Z" fill="#3D3D3D"/>
<path d="M390.098 1.125H392.591V79.875H390.098V1.125ZM394.632 41.5125V39.4875L435.439 1.125H438.84L397.012 40.3875L441.901 79.875H437.933L394.632 41.5125Z" fill="#3D3D3D"/>
<path d="M516.28 67.275C523.686 59.775 527.389 50.85 527.389 40.5C527.389 30.15 523.686 21.225 516.28 13.725C508.874 6.225 499.881 2.475 489.302 2.475C478.949 2.475 469.994 6.225 462.437 13.725C455.031 21.3 451.328 30.225 451.328 40.5C451.328 50.775 455.031 59.7 462.437 67.275C469.994 74.775 478.949 78.525 489.302 78.525C499.881 78.525 508.874 74.775 516.28 67.275ZM460.85 69.075C452.839 60.9 448.834 51.375 448.834 40.5C448.834 29.625 452.839 20.1 460.85 11.925C468.633 3.975 478.117 0 489.302 0C500.637 0 510.197 3.975 517.98 11.925C525.915 20.025 529.883 29.55 529.883 40.5C529.883 51.45 525.915 60.975 517.98 69.075C510.197 77.025 500.637 81 489.302 81C478.117 81 468.633 77.025 460.85 69.075Z" fill="#3D3D3D"/>
<path d="M550.383 3.7125V36.5625H579.969C586.921 36.5625 591.795 33.3375 594.592 26.8875C595.423 24.7875 595.838 22.575 595.838 20.25C595.838 17.925 595.423 15.6375 594.592 13.3875C591.795 6.9375 586.921 3.7125 579.969 3.7125H550.383ZM547.889 1.2375H579.969C584.125 1.2375 587.639 2.2875 590.511 4.3875C593.382 6.4125 595.498 9.1125 596.859 12.4875C597.765 14.8875 598.219 17.4375 598.219 20.1375C598.219 22.9125 597.765 25.4625 596.859 27.7875C595.196 31.9875 592.438 35.1375 588.584 37.2375C593.496 38.2875 597.274 40.8375 599.919 44.8875C602.64 48.8625 604 53.325 604 58.275C604 64.05 602.148 69.1125 598.446 73.4625C594.743 77.7375 589.642 79.875 583.143 79.875H547.889V1.2375ZM550.383 39.0375V77.5125H583.143C588.962 77.5125 593.496 75.6375 596.745 71.8875C599.995 68.0625 601.62 63.5625 601.62 58.3875C601.62 53.1375 599.995 48.6 596.745 44.775C593.496 40.95 588.962 39.0375 583.143 39.0375H550.383Z" fill="#3D3D3D"/>
</svg>

<svg viewBox="0 0 604 81" fill="none" xmlns="http://www.w3.org/2000/svg"><path d="M2.38 1.125v37.688h48.63V1.124h2.494v78.75H51.01v-38.7H2.38v38.7H0V1.125h2.38zm135.977 66.15c7.406-7.5 11.108-16.425 11.108-26.775 0-10.35-3.702-19.275-11.108-26.775-7.406-7.5-16.399-11.25-26.979-11.25-10.353 0-19.308 3.75-26.865 11.25-7.406 7.575-11.109 16.5-11.109 26.775 0 10.275 3.703 19.2 11.11 26.775 7.556 7.5 16.511 11.25 26.864 11.25 10.58 0 19.573-3.75 26.979-11.25zm-55.43 1.8C74.915 60.9 70.91 51.375 70.91 40.5s4.005-20.4 12.015-28.575C90.71 3.975 100.194 0 111.378 0c11.336 0 20.895 3.975 28.679 11.925 7.935 8.1 11.902 17.625 11.902 28.575s-3.967 20.475-11.902 28.575C132.273 77.025 122.714 81 111.378 81c-11.184 0-20.668-3.975-28.452-11.925zM172.46 3.712v32.85h29.585c6.953 0 11.827-3.224 14.623-9.674a17.875 17.875 0 001.247-6.638c0-2.325-.416-4.613-1.247-6.863-2.796-6.45-7.67-9.675-14.623-9.675H172.46zm-2.494-2.474h32.079c4.157 0 7.671 1.05 10.542 3.15 2.872 2.024 4.988 4.725 6.348 8.1.907 2.4 1.36 4.95 1.36 7.65 0 2.774-.453 5.324-1.36 7.65-1.662 4.2-4.421 7.35-8.275 9.45 4.912 1.05 8.691 3.6 11.336 7.65 2.72 3.974 4.081 8.437 4.081 13.387 0 5.775-1.852 10.837-5.555 15.188-3.703 4.275-8.804 6.412-15.303 6.412h-35.253V1.237zm2.494 37.8v38.475h32.759c5.819 0 10.353-1.876 13.603-5.626 3.249-3.825 4.874-8.325 4.874-13.5 0-5.25-1.625-9.787-4.874-13.612-3.25-3.825-7.784-5.737-13.603-5.737H172.46zm72.028-37.913h2.494v73.8l51.463-73.8h2.267v78.75h-2.381V5.625l-51.803 74.25h-2.04V1.125zm125.265 0v78.75h-2.494V45.45c-4.61 2.175-9.635 3.412-15.076 3.712-5.365.226-10.391-.374-15.076-1.8-4.686-1.5-8.577-4.162-11.676-7.987-3.098-3.9-4.647-8.625-4.647-14.175V1.125h2.493V25.2c0 5.1 1.474 9.412 4.421 12.938 3.023 3.45 6.764 5.812 11.222 7.087 4.459 1.275 9.22 1.725 14.283 1.35 5.139-.375 9.824-1.575 14.056-3.6V1.125h2.494zm20.345 0h2.493v78.75h-2.493V1.125zm4.534 40.388v-2.026l40.807-38.362h3.401l-41.828 39.263 44.889 39.487h-3.968l-43.301-38.362zM516.28 67.275c7.406-7.5 11.109-16.425 11.109-26.775 0-10.35-3.703-19.275-11.109-26.775-7.406-7.5-16.399-11.25-26.978-11.25-10.353 0-19.308 3.75-26.865 11.25-7.406 7.575-11.109 16.5-11.109 26.775 0 10.275 3.703 19.2 11.109 26.775 7.557 7.5 16.512 11.25 26.865 11.25 10.579 0 19.572-3.75 26.978-11.25zm-55.43 1.8c-8.011-8.175-12.016-17.7-12.016-28.575s4.005-20.4 12.016-28.575C468.633 3.975 478.117 0 489.302 0c11.335 0 20.895 3.975 28.678 11.925 7.935 8.1 11.903 17.625 11.903 28.575s-3.968 20.475-11.903 28.575C510.197 77.025 500.637 81 489.302 81c-11.185 0-20.669-3.975-28.452-11.925zm89.533-65.363v32.85h29.586c6.952 0 11.826-3.224 14.623-9.674a17.874 17.874 0 001.246-6.638 19.67 19.67 0 00-1.246-6.863c-2.797-6.45-7.671-9.675-14.623-9.675h-29.586zm-2.494-2.474h32.08c4.156 0 7.67 1.05 10.542 3.15 2.871 2.024 4.987 4.725 6.348 8.1.906 2.4 1.36 4.95 1.36 7.65 0 2.774-.454 5.324-1.36 7.65-1.663 4.2-4.421 7.35-8.275 9.45 4.912 1.05 8.69 3.6 11.335 7.65C602.64 48.862 604 53.325 604 58.275c0 5.775-1.852 10.837-5.554 15.188-3.703 4.275-8.804 6.412-15.303 6.412h-35.254V1.237zm2.494 37.8v38.475h32.76c5.819 0 10.353-1.876 13.602-5.626 3.25-3.825 4.875-8.325 4.875-13.5 0-5.25-1.625-9.787-4.875-13.612-3.249-3.825-7.783-5.737-13.602-5.737h-32.76z" fill="#3D3D3D"/></svg>
